icons/job/limited/BLU.svg

<svg viewBox="0 0 12.7 12.7" xmlns="http://www.w3.org/2000/svg">
  <g>
    <path d="M 9.0874634,2.5111323 C 8.8688751,2.7302522 8.5803549,3.1837087 8.9289211,3.2052834 9.3544738,3.2835629 9.4272105,3.4983204 9.4373633,3.813884 9.4481357,4.1486148 9.2005568,4.18269 9.0270577,4.2305226 8.0760961,4.4926964 7.2754265,4.9699515 6.4765961,4.9925025 c -0.026859,8.404e-4 -0.053913,0.00122 -0.081331,0.00122 -0.8574149,0 -1.4362972,-0.3653512 -2.3688496,-0.662093 C 2.5790132,3.8710656 1.6492915,3.4636974 1.3105296,3.7315232 0.94935376,4.0170707 1.4845843,5.2316095 1.8549703,5.9736398 2.309267,6.8837777 2.6243504,7.6593072 3.8688874,7.7155346 4.4141793,7.7401735 4.9838346,7.4596676 5.2755894,7.313224 5.6542695,7.1231475 6.1089831,6.910915 6.3952655,6.910915 6.6944956,7.0089394 7.4292932,7.0916623 7.2200196,7.4012667 6.7993892,8.0235582 5.8201429,9.8045309 5.8014739,10.126628 5.7509383,10.99851 7.8234228,8.4120893 8.1071543,7.9310988 8.2878863,7.624714 8.4379429,7.6719124 8.7080522,7.7083987 10.052461,7.8900116 10.411997,6.8837777 10.858572,5.9736398 11.222666,5.2316095 11.743566,4.0231912 11.393538,3.7315232 11.270158,3.628714 11.127974,3.6290456 10.834884,3.7026898 10.707537,3.7346862 10.703908,3.5887025 10.683229,3.3754408 10.642072,2.9509629 9.5815288,2.0821513 9.0874634,2.5111406 Z M 2.5960258,4.8941947 C 2.7663461,4.8882362 3.0620137,4.9507534 3.5526464,5.1176565 4.0356302,5.2819556 4.5262015,5.5030421 4.8661735,5.6818381 5.40063,5.9629186 5.576939,6.0949394 5.3063846,6.2570733 5.0075841,6.4361345 4.2082018,6.5143834 3.7804507,6.5326492 3.411494,6.5484181 3.0386428,6.6608538 2.5143005,5.427186 2.4034389,5.1663523 2.270869,4.9055493 2.5960258,4.8941947 Z m 7.4721422,0.0055 C 10.53221,4.8491822 10.157862,5.5694994 9.9848598,5.9017251 9.7376683,6.3095992 9.5417885,6.5001684 9.1277331,6.5148655 8.5437486,6.5355928 8.0977235,6.5236821 7.4257054,6.2112608 7.1679469,6.0710246 7.5264442,5.8807648 7.898291,5.6818229 8.2324856,5.5030269 8.7149313,5.2819403 9.1897087,5.1176412 9.4933386,5.0336531 9.7973137,4.9291821 10.068168,4.8996947 Z" />
  </g>
</svg>

<svg viewBox="0 0 12.7 12.7" xmlns="http://www.w3.org/2000/svg"><path d="M9.087 2.511c-.218.22-.507.673-.158.694.425.079.498.293.508.609.011.335-.236.369-.41.417-.95.262-1.752.739-2.55.762h-.082c-.857 0-1.436-.365-2.369-.661-1.447-.46-2.377-.868-2.715-.6-.362.285.174 1.5.544 2.242.454.91.77 1.685 2.014 1.742.545.024 1.115-.256 1.407-.403.378-.19.833-.402 1.12-.402.298.098 1.033.18.824.49-.42.623-1.4 2.404-1.419 2.726-.05.872 2.022-1.715 2.306-2.196.18-.306.33-.26.601-.223 1.344.182 1.704-.824 2.15-1.734.365-.742.886-1.95.536-2.242-.124-.103-.266-.103-.56-.03-.126.033-.13-.113-.15-.327-.042-.424-1.102-1.293-1.597-.864ZM2.596 4.894c.17-.006.466.057.957.224.483.164.973.385 1.313.564.535.28.71.413.44.575-.298.18-1.098.257-1.526.276-.369.015-.741.128-1.266-1.106-.11-.26-.243-.521.082-.533Zm7.472.006c.464-.05.09.67-.083 1.002-.247.408-.443.598-.857.613-.584.02-1.03.009-1.702-.304-.258-.14.1-.33.472-.53a9.42 9.42 0 0 1 1.292-.563c.303-.084.607-.189.878-.218Z"/></svg>
